X:8019
T:West Side Trows Reel
N:heard from the fairies by Hakki Johnson in Aithsting, 1790
O:England
M:4/4
L:1/8
K:Ador
a|fdfd fd2a|fdfd eB2g|({fg}f2)({fg}f)e defd|({ef}e2)fd eB2||
f|adfd ad2f|adfd eB2g|({fg}f2)({fg}f)e defd|({ef}e2)fd eA2||
